symbolic/32x32/places/folder-red-apple.svg

<svg xmlns="http://www.w3.org/2000/svg" width="32" height="32" version="1"><rect style="opacity:.2" width="28" height="18" x="2" y="11" rx="1.4" ry="1.4"/><path style="fill:#bf4b4b" d="M2 22.6c0 .776.624 1.4 1.4 1.4h25.2c.776 0 1.4-.624 1.4-1.4V7.4c0-.776-.624-1.4-1.4-1.4H16c-2.1 0-2.8-3-4.9-3H3.4C2.624 3 2 3.624 2 4.4"/><rect style="opacity:.2" width="28" height="18" x="2" y="9" rx="1.4" ry="1.4"/><rect style="fill:#e4e4e4" width="24" height="11" x="4" y="8" rx="1.4" ry="1.4"/><rect style="fill:#e25252" width="28" height="18" x="2" y="10" rx="1.4" ry="1.4"/><path style="opacity:.1;fill:#fff" d="M3.4 3C2.625 3 2 3.625 2 4.4v1C2 4.625 2.625 4 3.4 4h7.7c2.1 0 2.8 3 4.9 3h12.6c.775 0 1.4.625 1.4 1.4v-1c0-.775-.625-1.4-1.4-1.4H16c-2.1 0-2.8-3-4.9-3z"/><path style="fill:#4f1d1d" d="M17.989 14c-.496.018-1.097.29-1.453.656-.319.325-.6.842-.525 1.34.553.038 1.12-.247 1.465-.613.344-.367.577-.875.513-1.383zm-.328 2.006c-.657.052-1.258.484-1.598.484-.387 0-.984-.469-1.619-.457-.834.014-1.604.519-2.033 1.321-.866 1.613-.223 4.002.621 5.31.413.64.968 1.336 1.553 1.336s.857-.434 1.609-.434.954.42 1.621.42 1.093-.652 1.502-1.295c.474-.742.671-1.463.683-1.5-.015-.007-1.306-.536-1.319-2.13-.013-1.335 1.016-1.977 1.062-2.008a2.246 2.246 0 0 0-1.797-1.045 1.43 1.43 0 0 0-.285-.002z"/></svg>

<svg xmlns="http://www.w3.org/2000/svg" width="32" height="32" version="1">
 <rect style="opacity:0.2" width="28" height="18" x="2" y="11" rx="1.4" ry="1.4"/>
 <path style="fill:#bf4b4b" d="M 2,22.6 C 2,23.376 2.6244,24 3.4,24 H 28.6 C 29.376,24 30,23.376 30,22.6 V 7.4 C 30,6.6244 29.376,6 28.6,6 H 16 C 13.9,6 13.2,3 11.1,3 H 3.4 C 2.6244,3 2,3.6244 2,4.4"/>
 <rect style="opacity:0.2" width="28" height="18" x="2" y="9" rx="1.4" ry="1.4"/>
 <rect style="fill:#e4e4e4" width="24" height="11" x="4" y="8" rx="1.4" ry="1.4"/>
 <rect style="fill:#e25252" width="28" height="18" x="2" y="10" rx="1.4" ry="1.4"/>
 <path style="opacity:0.1;fill:#ffffff" d="M 3.4004,3 C 2.6248,3 2,3.6248 2,4.4004 V 5.4004 C 2,4.6248 2.6248,4 3.4004,4 H 11.1 C 13.2,4 13.9,7 16,7 H 28.6 C 29.375,7 30,7.6248 30,8.4004 V 7.4004 C 30,6.6248 29.375,6 28.6,6 H 16 C 13.9,6 13.2,3 11.1,3 Z"/>
 <path style="fill:#4f1d1d" d="M 17.989,14 C 17.493,14.018 16.892,14.29 16.536,14.656 16.217,14.981 15.936,15.498 16.011,15.996 16.564,16.034 17.131,15.749 17.476,15.383 17.82,15.016 18.053,14.508 17.989,14 Z M 17.661,16.006 C 17.004,16.058 16.403,16.49 16.063,16.49 15.676,16.49 15.079,16.021 14.444,16.033 13.61,16.047 12.84,16.552 12.411,17.354 11.545,18.967 12.188,21.356 13.032,22.664 13.445,23.304 14,24 14.585,24 15.17,24 15.442,23.566 16.194,23.566 16.946,23.566 17.148,23.986 17.815,23.986 18.482,23.986 18.908,23.334 19.317,22.691 19.791,21.949 19.988,21.228 20,21.191 19.985,21.184 18.694,20.655 18.681,19.061 18.668,17.726 19.697,17.084 19.743,17.053 19.166,16.147 18.267,16.022 17.946,16.008 17.851,15.997 17.755,15.998 17.661,16.006 Z"/>
</svg>
